X: 100293
T: JEANIE'S REEL
C: By W. B. Laybourn, from the above
R: reel
B: K\"ohler's Violin Repository, v.3, 1885 p.214 #2
F: http://www.archive.org/details/klersviolinrepos03rugg
Z: 2012 John Chambers <jc:trillian.mit.edu>
M: C|
L: 1/8
K: Bb
uF |\
FB ((3BAB) dB ((3BAB) | Gc (c=Bc) (ed)cF | FB ((3BAB) (dc)dg | (fd)cd (BG)G :|
ud |\
BFFB GBFB | dB FB Gccd | BFFB GBFB | (dg)fe (dB)Bd |
BFFB GBFB | dBFB Gcce | f(fec) dBAF | (BG)Fc (dB)"_Finale"B "^D.C."|]

%%sep 2 1 500

